src/images/how-it-works-1.svg

<svg width="125" height="142" fill="none" xmlns="http://www.w3.org/2000/svg"><path d="M76.1152 119.464c.6 3.6 2.3 7.1 5.3 9 2 1.3 4.4 1.8 6.7 2.1 5.1.8 10.3 1.3 15.5998 1.3 4.2 0 8.3.6 12-2 2.3-1.6 4-4.2 4.7-6.9.4-1.7.5-3.5.4-5.3-.1-2.1-.3-4.3-.5-6.4-7.1-.9-14.7-.1-21.8998-.5-7.2-.4-14.4-1.1-21.6-1.9-.2 0-.5 0-.5.2s-.8 6.8-.2 10.4Z" fill="#D9D9D9" stroke="#1B383C" stroke-width="2" stroke-miterlimit="10"/><path d="M73.9151 105.664v-.3c0-.6.5-1 1.1-1l8.1.5v-.1c-.1-1 .8-1.8 1.7-2 .9-.2 1.9-.1 2.8.1 7.4 1.3 14.8999.4 22.3999.3 1.3 0 2.6 0 3.8.5.9.4 2.4 1.9 2.6 3.2l6.1.4c.6 0 1 .5 1 1.1l-.2 2.9c0 .6-.5 1-1.1 1l-47.4999-2.8c-.6 0-1-.5-.9-1.1 0-1.1.2-1.7.1-2.7Z" fill="#FF9820" stroke="#1B383C" stroke-width="2" stroke-miterlimit="10"/><path d="M63.0155 103.865c1.3 2.8 3.4 5.3 6.2 6.2 1.9.6 3.9.5 5.9.3 4.4-.4 8.7-1.2 13-2.2 3.4-.9 6.9-1.3 9.4-4.2 1.5-1.8 2.4-4.3004 2.4-6.7004 0-1.5-.4-3-.8-4.4-.5-1.7-1.2-3.4-1.8-5.1-6 .8-12 3.1001-18 4.3001-6 1.2-12 2.2-18 3-.2 0-.4.0999-.4.2999 0 .1.9 5.8004 2.1 8.5004Z" fill="#D9D9D9" stroke="#1B383C" stroke-width="2" stroke-miterlimit="10"/><path d="M58.3155 93.0648v-.2c-.1-.5.2-1 .7-1l6.7-1.3c-.3-.8.3-1.6 1-2 .7-.4 1.5-.4 2.3-.5 6.3-.5 12.3-2.9 18.4-4.6 1-.3 2.1-.6 3.2-.4.9.1 2.4 1.1 2.8001 2.1l5.0999-1c.5-.1.9001.2 1 .7l.4001 2.4c.1004.5-.2001.9-.7001 1l-39.4 7.9c-.5.1-.9-.2-1-.7-.3-1-.2-1.6-.5-2.4Z" fill="#FF9820" stroke="#1B383C" stroke-width="2" stroke-miterlimit="10"/><path d="M4.0156 123.064c.5 3.6 2.1 7.1 5 9.2 1.9 1.3 4.3 1.9 6.6 2.4 5.1 1 10.3 1.6 15.5 1.8 4.2.2 8.3.9 12.1-1.6 2.4-1.6 4.2-4 5-6.8.5-1.7.6-3.5.6-5.3 0-2.1-.2-4.3-.3-6.4-7-1.1-14.7-.6-21.9-1.2-7.2-.6-14.4-1.6-21.5-2.6-.2 0-.5 0-.6.2 0 .1-.9 6.7-.5 10.3Z" fill="#D9D9D9" stroke="#1B383C" stroke-width="2" stroke-miterlimit="10"/><path d="M2.3153 109.264v-.3c.1-.6.6-1 1.1-1l8.1.7v-.1c0-1 .9-1.8 1.8-2 .9-.2 1.9 0 2.8.2 7.3 1.5 14.9.9 22.4 1 1.3 0 2.6.1 3.8.6.9.4 2.3 2 2.5 3.3l6.1.6c.6 0 1 .6.9 1.1l-.3 2.9c-.1.6-.6 1-1.1 1l-47.5-4.3c-.6-.1-1-.6-.9-1.1.1-1 .4-1.6.3-2.6Z" fill="#FF9820" stroke="#1B383C" stroke-width="2" stroke-miterlimit="10"/><path d="M43.5151 131.565c1.3 3.4 3.7 6.4 7.1 7.7 2.2.8 4.6.8 7 .7 5.2-.3 10.4-.9 15.5-2 4.1-.9 8.3-1.1 11.3-4.5 1.9-2.1 3.1-4.9 3.2-7.8.1-1.8-.3-3.6-.7-5.3-.5-2.1-1.2-4.1-1.9-6.1-7.1.6-14.4 3-21.5 4.2-7.1 1.1-14.3 2-21.5 2.7-.2 0-.5.1-.5.3 0 0 .7 6.7 2 10.1Z" fill="#D9D9D9" stroke="#1B383C" stroke-width="2" stroke-miterlimit="10"/><path d="M38.5153 118.465v-.3c-.1-.6.3-1.1.9-1.2l8-1.2v-.1c-.3-.9.4-1.9 1.3-2.3.8-.4 1.8-.4 2.7-.5 7.5-.3 14.7-2.7 22-4.5 1.3-.3 2.5-.6 3.8-.3 1 .2 2.7 1.4 3.2 2.6l6.1-.9c.6-.1 1.1.3 1.2.9l.4 2.9c.1.6-.3 1.1-.9 1.2l-47 7.3c-.6.1-1.1-.3-1.2-.9-.3-1.1-.2-1.7-.5-2.7Z" fill="#FF9820" stroke="#1B383C" stroke-width="2" stroke-miterlimit="10"/><path d="M26.3154 103.164c.6 3.6 2.3 7.1 5.3 9 2 1.3 4.4 1.8 6.7 2.1 5.1.8 10.3 1.3 15.6 1.3 4.2 0 8.3.6 12-2 2.3-1.6 4-4.2 4.7-6.9.4-1.7.5-3.5.4-5.3-.1-2.0996-.3-4.2995-.5-6.3995-7.1-.9-14.7-.1-21.9-.5-7.2-.4-14.4-1.1-21.6-1.9-.2 0-.5 0-.5.2s-.8 6.9-.2 10.3995Z" fill="#D9D9D9" stroke="#1B383C" stroke-width="2" stroke-miterlimit="10"/><path d="M24.1153 89.3645v-.3c0-.6.5-1 1.1-1l8.1.5v-.1c-.1-1 .8-1.8 1.7-2 .9-.2 1.9-.1 2.8.1 7.4 1.3 14.9.4 22.4.3 1.3 0 2.6 0 3.8.5.9.4 2.4 1.9 2.6 3.2l6.1.4c.6 0 1 .5 1 1.1l-.2 2.9c0 .6-.5 1-1.1 1l-47.5-2.8c-.6 0-1-.5-.9-1.1 0-1.1.2-1.7.1-2.7Z" fill="#FF9820" stroke="#1B383C" stroke-width="2" stroke-miterlimit="10"/><rect x="46" width="40" height="73" rx="5" fill="#1C383C"/><rect x="48" y="4" width="36" height="64" rx="2" fill="#FF9820"/><rect x="51" y="30" width="30" height="12" rx="1" fill="#fff"/><path d="m57.2575 38-.7825-1.3975h-.385l-.1675-.0375.0725-.5v-.08h.5275c.1167 0 .21-.02.28-.06.0717-.04.1233-.0958.155-.1675.0317-.0733.0475-.1592.0475-.2575 0-.1217-.0217-.2133-.065-.275a.3176.3176 0 0 0-.1725-.125c-.07-.0233-.1483-.035-.235-.035l-.3975-.0025-.175-.2825-.04-.415h.715c.2333 0 .4383.0392.615.1175.1783.0783.3175.1967.4175.355.1.1583.15.3567.15.595 0 .185-.035.3583-.105.52-.07.16-.1792.2908-.3275.3925-.1483.1-.34.155-.575.165l.1-.04c.065 0 .125.0058.18.0175a.4271.4271 0 0 1 .1525.065c.0467.0317.0883.0767.125.135L58.195 38h-.9375Zm-1.9125 0v-3.635h.7925V38h-.7925Zm3.1934 0v-3.635h2.2275v.7175h-1.6875l.2425-.185V35.94l-.2425-.1575h1.52v.715h-1.495l.2175-.155v1.1225l-.2425-.1875h1.7325V38h-2.2725Zm4.2704.05c-.3033 0-.5791-.0733-.8275-.22-.2483-.1467-.4458-.36-.5925-.64-.1466-.2817-.22-.625-.22-1.03 0-.4.07-.7392.21-1.0175.1417-.2783.3359-.4892.5825-.6325.2467-.145.53-.2175.85-.2175.3134 0 .5934.0725.84.2175.2484.1433.4442.3542.5875.6325.145.2783.2175.6175.2175 1.0175 0 .405-.0716.7483-.215 1.03-.1433.28-.3391.4933-.5875.64-.2466.1467-.5283.22-.845.22Zm.545.74-.4175-.9075h.6175c.0384 0 .0825.01.1325.03.05.02.0917.0592.125.1175l.4375.76h-.895Zm-.545-1.485c.165 0 .3092-.0417.4325-.125.125-.0833.2225-.2092.2925-.3775.07-.1683.105-.38.105-.635 0-.2483-.035-.4558-.105-.6225-.07-.1683-.1675-.295-.2925-.38-.1233-.085-.2666-.1275-.43-.1275-.155 0-.295.0425-.42.1275-.125.085-.2241.2117-.2975.38-.0716.1667-.1075.3742-.1075.6225 0 .1917.0209.3592.0625.5025.0417.1417.1.26.175.355.075.0933.1617.1633.26.21.1.0467.2084.07.325.07Zm3.5349.745c-.2867 0-.5367-.0567-.75-.17-.2117-.115-.3767-.28-.495-.495-.1167-.2167-.175-.4767-.175-.78V34.36h.8025v2.1525c0 .14.0125.2617.0375.365.0266.1033.0658.19.1175.26a.4944.4944 0 0 0 .195.1525c.0783.0333.1691.05.2725.05.1016 0 .19-.0167.265-.05a.4585.4585 0 0 0 .19-.1525c.0516-.0683.09-.1542.115-.2575.0266-.105.04-.2275.04-.3675V34.365h.8025v2.24c0 .2983-.0584.5558-.175.7725-.1167.2167-.2809.3833-.4925.5-.2117.115-.4617.1725-.75.1725Zm2.0579-.05v-3.635h2.2275v.7175h-1.6875l.2425-.185V35.94l-.2425-.1575h1.52v.715h-1.495l.2175-.155v1.1225l-.2425-.1875h1.7325V38h-2.2725Zm4.0325.05c-.2783 0-.5291-.0433-.7525-.13-.2216-.0883-.395-.2242-.52-.4075-.125-.1833-.1825-.4175-.1725-.7025h.775c.0034.12.0284.2225.075.3075.0467.085.12.15.22.195.1.0433.23.065.39.065.13 0 .2367-.0133.32-.04.0834-.0267.1442-.0658.1825-.1175.04-.0533.06-.1183.06-.195 0-.085-.0266-.155-.08-.21-.0533-.0567-.1375-.1092-.2525-.1575-.1133-.0483-.26-.1033-.44-.165-.2233-.08-.4191-.17-.5875-.27-.1666-.1-.2958-.2225-.3875-.3675-.0916-.145-.1375-.3233-.1375-.535 0-.33.1142-.5808.3425-.7525.23-.1733.5417-.26.935-.26.2684 0 .4925.0425.6725.1275.18.0833.3175.2083.4125.375.0967.1667.1534.3733.17.62h-.76c-.0033-.0967-.0241-.1783-.0625-.245-.0366-.0667-.0908-.1175-.1625-.1525-.0716-.035-.1608-.0525-.2675-.0525-.1616 0-.285.0267-.37.08-.085.0517-.1275.1342-.1275.2475 0 .085.0192.1575.0575.2175.04.0583.1084.1133.205.165.0967.0517.2309.1092.4025.1725.16.0583.3134.1158.46.1725.1484.055.2809.1208.3975.1975.1167.075.2084.17.275.285.0684.115.1025.2617.1025.44.0017.3633-.1225.6367-.3725.82-.25.1817-.5841.2725-1.0025.2725Zm2.473-.05v-2.615c0-.1.0183-.1725.055-.2175.0366-.045.0925-.0733.1675-.085h-1.12v-.7175h2.585v.7175h-.8925V38h-.795Z" fill="#1C383C"/><rect x="55" width="22" height="8" rx="1" fill="#1C383C"/></svg>

<svg width="125" height="142" viewBox="0 0 125 142" fill="none" xmlns="http://www.w3.org/2000/svg">
<path d="M76.1152 119.464C76.7152 123.064 78.4152 126.564 81.4152 128.464C83.4152 129.764 85.8152 130.264 88.1152 130.564C93.2152 131.364 98.4152 131.864 103.715 131.864C107.915 131.864 112.015 132.464 115.715 129.864C118.015 128.264 119.715 125.664 120.415 122.964C120.815 121.264 120.915 119.464 120.815 117.664C120.715 115.564 120.515 113.364 120.315 111.264C113.215 110.364 105.615 111.164 98.4152 110.764C91.2152 110.364 84.0152 109.664 76.8152 108.864C76.6152 108.864 76.3152 108.864 76.3152 109.064C76.3152 109.264 75.5152 115.864 76.1152 119.464Z" fill="#D9D9D9" stroke="#1B383C" stroke-width="2" stroke-miterlimit="10"/>
<path d="M73.9151 105.664V105.364C73.9151 104.764 74.4151 104.364 75.0151 104.364L83.1151 104.864C83.1151 104.864 83.1151 104.864 83.1151 104.764C83.0151 103.764 83.9151 102.964 84.8151 102.764C85.7151 102.564 86.7151 102.664 87.6151 102.864C95.0151 104.164 102.515 103.264 110.015 103.164C111.315 103.164 112.615 103.164 113.815 103.664C114.715 104.064 116.215 105.564 116.415 106.864L122.515 107.264C123.115 107.264 123.515 107.764 123.515 108.364L123.315 111.264C123.315 111.864 122.815 112.264 122.215 112.264L74.7151 109.464C74.1151 109.464 73.7151 108.964 73.8151 108.364C73.8151 107.264 74.0151 106.664 73.9151 105.664Z" fill="#FF9820" stroke="#1B383C" stroke-width="2" stroke-miterlimit="10"/>
<path d="M63.0155 103.865C64.3155 106.665 66.4155 109.165 69.2155 110.065C71.1155 110.665 73.1155 110.565 75.1155 110.365C79.5155 109.965 83.8155 109.165 88.1155 108.165C91.5155 107.265 95.0155 106.865 97.5155 103.965C99.0155 102.165 99.9155 99.6646 99.9155 97.2646C99.9155 95.7646 99.5155 94.2646 99.1155 92.8646C98.6155 91.1646 97.9155 89.4646 97.3155 87.7646C91.3155 88.5646 85.3155 90.8647 79.3155 92.0647C73.3155 93.2647 67.3155 94.2647 61.3155 95.0647C61.1155 95.0647 60.9155 95.1646 60.9155 95.3646C60.9155 95.4646 61.8155 101.165 63.0155 103.865Z" fill="#D9D9D9" stroke="#1B383C" stroke-width="2" stroke-miterlimit="10"/>
<path d="M58.3155 93.0648V92.8648C58.2155 92.3648 58.5155 91.8648 59.0155 91.8648L65.7155 90.5648C65.4155 89.7648 66.0155 88.9648 66.7155 88.5648C67.4155 88.1648 68.2155 88.1648 69.0155 88.0648C75.3155 87.5648 81.3155 85.1648 87.4155 83.4648C88.4155 83.1648 89.5155 82.8648 90.6155 83.0648C91.5155 83.1648 93.0155 84.1648 93.4156 85.1648L98.5155 84.1648C99.0155 84.0648 99.4156 84.3648 99.5155 84.8648L99.9156 87.2648C100.016 87.7648 99.7155 88.1648 99.2155 88.2648L59.8155 96.1648C59.3155 96.2648 58.9155 95.9648 58.8155 95.4648C58.5155 94.4648 58.6155 93.8648 58.3155 93.0648Z" fill="#FF9820" stroke="#1B383C" stroke-width="2" stroke-miterlimit="10"/>
<path d="M4.01557 123.064C4.51557 126.664 6.11557 130.164 9.01557 132.264C10.9156 133.564 13.3156 134.164 15.6156 134.664C20.7156 135.664 25.9156 136.264 31.1156 136.464C35.3156 136.664 39.4156 137.364 43.2156 134.864C45.6156 133.264 47.4156 130.864 48.2156 128.064C48.7156 126.364 48.8156 124.564 48.8156 122.764C48.8156 120.664 48.6156 118.464 48.5156 116.364C41.5156 115.264 33.8156 115.764 26.6156 115.164C19.4156 114.564 12.2156 113.564 5.11557 112.564C4.91557 112.564 4.61557 112.564 4.51557 112.764C4.51557 112.864 3.61557 119.464 4.01557 123.064Z" fill="#D9D9D9" stroke="#1B383C" stroke-width="2" stroke-miterlimit="10"/>
<path d="M2.31531 109.264V108.964C2.41531 108.364 2.91531 107.964 3.41531 107.964L11.5153 108.664C11.5153 108.664 11.5153 108.664 11.5153 108.564C11.5153 107.564 12.4153 106.764 13.3153 106.564C14.2153 106.364 15.2153 106.564 16.1153 106.764C23.4153 108.264 31.0153 107.664 38.5153 107.764C39.8153 107.764 41.1153 107.864 42.3153 108.364C43.2153 108.764 44.6153 110.364 44.8153 111.664L50.9153 112.264C51.5153 112.264 51.9153 112.864 51.8153 113.364L51.5153 116.264C51.4153 116.864 50.9153 117.264 50.4153 117.264L2.91531 112.964C2.31531 112.864 1.91531 112.364 2.01531 111.864C2.11531 110.864 2.41531 110.264 2.31531 109.264Z" fill="#FF9820" stroke="#1B383C" stroke-width="2" stroke-miterlimit="10"/>
<path d="M43.5151 131.565C44.8151 134.965 47.2151 137.965 50.6151 139.265C52.8151 140.065 55.2151 140.065 57.6151 139.965C62.8151 139.665 68.0151 139.065 73.1151 137.965C77.2151 137.065 81.4151 136.865 84.4151 133.465C86.3151 131.365 87.5151 128.565 87.6151 125.665C87.7151 123.865 87.3151 122.065 86.9151 120.365C86.4151 118.265 85.7151 116.265 85.0151 114.265C77.9151 114.865 70.6151 117.265 63.5151 118.465C56.4151 119.565 49.2151 120.465 42.0151 121.165C41.8151 121.165 41.5151 121.265 41.5151 121.465C41.5151 121.465 42.2151 128.165 43.5151 131.565Z" fill="#D9D9D9" stroke="#1B383C" stroke-width="2" stroke-miterlimit="10"/>
<path d="M38.5153 118.465V118.165C38.4153 117.565 38.8153 117.065 39.4153 116.965L47.4153 115.765C47.4153 115.765 47.4153 115.765 47.4153 115.665C47.1153 114.765 47.8153 113.765 48.7153 113.365C49.5153 112.965 50.5153 112.965 51.4153 112.865C58.9153 112.565 66.1153 110.165 73.4153 108.365C74.7153 108.065 75.9153 107.765 77.2153 108.065C78.2153 108.265 79.9153 109.465 80.4153 110.665L86.5153 109.765C87.1153 109.665 87.6153 110.065 87.7153 110.665L88.1153 113.565C88.2153 114.165 87.8153 114.665 87.2153 114.765L40.2153 122.065C39.6153 122.165 39.1153 121.765 39.0153 121.165C38.7153 120.065 38.8153 119.465 38.5153 118.465Z" fill="#FF9820" stroke="#1B383C" stroke-width="2" stroke-miterlimit="10"/>
<path d="M26.3154 103.164C26.9154 106.764 28.6154 110.264 31.6154 112.164C33.6154 113.464 36.0154 113.964 38.3154 114.264C43.4154 115.064 48.6154 115.564 53.9154 115.564C58.1154 115.564 62.2154 116.164 65.9154 113.564C68.2154 111.964 69.9154 109.364 70.6154 106.664C71.0154 104.964 71.1154 103.164 71.0154 101.364C70.9154 99.2644 70.7154 97.0645 70.5154 94.9645C63.4154 94.0645 55.8154 94.8645 48.6154 94.4645C41.4154 94.0645 34.2154 93.3645 27.0154 92.5645C26.8154 92.5645 26.5154 92.5645 26.5154 92.7645C26.5154 92.9645 25.7154 99.6645 26.3154 103.164Z" fill="#D9D9D9" stroke="#1B383C" stroke-width="2" stroke-miterlimit="10"/>
<path d="M24.1153 89.3645V89.0645C24.1153 88.4645 24.6153 88.0645 25.2153 88.0645L33.3153 88.5645C33.3153 88.5645 33.3153 88.5645 33.3153 88.4645C33.2153 87.4645 34.1153 86.6645 35.0153 86.4645C35.9153 86.2645 36.9153 86.3645 37.8153 86.5645C45.2153 87.8645 52.7153 86.9645 60.2153 86.8645C61.5153 86.8645 62.8153 86.8645 64.0153 87.3645C64.9153 87.7645 66.4153 89.2645 66.6153 90.5645L72.7153 90.9645C73.3153 90.9645 73.7153 91.4645 73.7153 92.0645L73.5153 94.9645C73.5153 95.5645 73.0153 95.9645 72.4153 95.9645L24.9153 93.1645C24.3153 93.1645 23.9153 92.6645 24.0153 92.0645C24.0153 90.9645 24.2153 90.3645 24.1153 89.3645Z" fill="#FF9820" stroke="#1B383C" stroke-width="2" stroke-miterlimit="10"/>
<rect x="46" width="40" height="73" rx="5" fill="#1C383C"/>
<rect x="48" y="4" width="36" height="64" rx="2" fill="#FF9820"/>
<rect x="51" y="30" width="30" height="12" rx="1" fill="white"/>
<path d="M57.2575 38L56.475 36.6025H56.09L55.9225 36.565L55.995 36.065V35.985H56.5225C56.6392 35.985 56.7325 35.965 56.8025 35.925C56.8742 35.885 56.9258 35.8292 56.9575 35.7575C56.9892 35.6842 57.005 35.5983 57.005 35.5C57.005 35.3783 56.9833 35.2867 56.94 35.225C56.8967 35.1633 56.8392 35.1217 56.7675 35.1C56.6975 35.0767 56.6192 35.065 56.5325 35.065L56.135 35.0625L55.96 34.78L55.92 34.365C55.985 34.365 56.0458 34.365 56.1025 34.365C56.1608 34.365 56.2308 34.365 56.3125 34.365C56.3942 34.365 56.5017 34.365 56.635 34.365C56.8683 34.365 57.0733 34.4042 57.25 34.4825C57.4283 34.5608 57.5675 34.6792 57.6675 34.8375C57.7675 34.9958 57.8175 35.1942 57.8175 35.4325C57.8175 35.6175 57.7825 35.7908 57.7125 35.9525C57.6425 36.1125 57.5333 36.2433 57.385 36.345C57.2367 36.445 57.045 36.5 56.81 36.51L56.91 36.47C56.975 36.47 57.035 36.4758 57.09 36.4875C57.145 36.4992 57.1958 36.5208 57.2425 36.5525C57.2892 36.5842 57.3308 36.6292 57.3675 36.6875L58.195 38H57.2575ZM55.345 38V34.365H56.1375V38H55.345ZM58.5384 38V34.365H60.7659V35.0825H59.0784L59.3209 34.8975V35.94L59.0784 35.7825H60.5984V36.4975H59.1034L59.3209 36.3425V37.465L59.0784 37.2775H60.8109V38H58.5384ZM62.8088 38.05C62.5055 38.05 62.2297 37.9767 61.9813 37.83C61.733 37.6833 61.5355 37.47 61.3888 37.19C61.2422 36.9083 61.1688 36.565 61.1688 36.16C61.1688 35.76 61.2388 35.4208 61.3788 35.1425C61.5205 34.8642 61.7147 34.6533 61.9613 34.51C62.208 34.365 62.4913 34.2925 62.8113 34.2925C63.1247 34.2925 63.4047 34.365 63.6513 34.51C63.8997 34.6533 64.0955 34.8642 64.2388 35.1425C64.3838 35.4208 64.4563 35.76 64.4563 36.16C64.4563 36.565 64.3847 36.9083 64.2413 37.19C64.098 37.47 63.9022 37.6833 63.6538 37.83C63.4072 37.9767 63.1255 38.05 62.8088 38.05ZM63.3538 38.79L62.9363 37.8825H63.5538C63.5922 37.8825 63.6363 37.8925 63.6863 37.9125C63.7363 37.9325 63.778 37.9717 63.8113 38.03L64.2488 38.79H63.3538ZM62.8088 37.305C62.9738 37.305 63.118 37.2633 63.2413 37.18C63.3663 37.0967 63.4638 36.9708 63.5338 36.8025C63.6038 36.6342 63.6388 36.4225 63.6388 36.1675C63.6388 35.9192 63.6038 35.7117 63.5338 35.545C63.4638 35.3767 63.3663 35.25 63.2413 35.165C63.118 35.08 62.9747 35.0375 62.8113 35.0375C62.6563 35.0375 62.5163 35.08 62.3913 35.165C62.2663 35.25 62.1672 35.3767 62.0938 35.545C62.0222 35.7117 61.9863 35.9192 61.9863 36.1675C61.9863 36.3592 62.0072 36.5267 62.0488 36.67C62.0905 36.8117 62.1488 36.93 62.2238 37.025C62.2988 37.1183 62.3855 37.1883 62.4838 37.235C62.5838 37.2817 62.6922 37.305 62.8088 37.305ZM66.3437 38.05C66.057 38.05 65.807 37.9933 65.5937 37.88C65.382 37.765 65.217 37.6 65.0987 37.385C64.982 37.1683 64.9237 36.9083 64.9237 36.605V34.36H65.7262V36.5125C65.7262 36.6525 65.7387 36.7742 65.7637 36.8775C65.7903 36.9808 65.8295 37.0675 65.8812 37.1375C65.9345 37.2058 65.9995 37.2567 66.0762 37.29C66.1545 37.3233 66.2453 37.34 66.3487 37.34C66.4503 37.34 66.5387 37.3233 66.6137 37.29C66.6903 37.2567 66.7537 37.2058 66.8037 37.1375C66.8553 37.0692 66.8937 36.9833 66.9187 36.88C66.9453 36.775 66.9587 36.6525 66.9587 36.5125V34.365H67.7612V36.605C67.7612 36.9033 67.7028 37.1608 67.5862 37.3775C67.4695 37.5942 67.3053 37.7608 67.0937 37.8775C66.882 37.9925 66.632 38.05 66.3437 38.05ZM68.4016 38V34.365H70.6291V35.0825H68.9416L69.1841 34.8975V35.94L68.9416 35.7825H70.4616V36.4975H68.9666L69.1841 36.3425V37.465L68.9416 37.2775H70.6741V38H68.4016ZM72.4341 38.05C72.1558 38.05 71.905 38.0067 71.6816 37.92C71.46 37.8317 71.2866 37.6958 71.1616 37.5125C71.0366 37.3292 70.9791 37.095 70.9891 36.81H71.7641C71.7675 36.93 71.7925 37.0325 71.8391 37.1175C71.8858 37.2025 71.9591 37.2675 72.0591 37.3125C72.1591 37.3558 72.2891 37.3775 72.4491 37.3775C72.5791 37.3775 72.6858 37.3642 72.7691 37.3375C72.8525 37.3108 72.9133 37.2717 72.9516 37.22C72.9916 37.1667 73.0116 37.1017 73.0116 37.025C73.0116 36.94 72.985 36.87 72.9316 36.815C72.8783 36.7583 72.7941 36.7058 72.6791 36.6575C72.5658 36.6092 72.4191 36.5542 72.2391 36.4925C72.0158 36.4125 71.82 36.3225 71.6516 36.2225C71.485 36.1225 71.3558 36 71.2641 35.855C71.1725 35.71 71.1266 35.5317 71.1266 35.32C71.1266 34.99 71.2408 34.7392 71.4691 34.5675C71.6991 34.3942 72.0108 34.3075 72.4041 34.3075C72.6725 34.3075 72.8966 34.35 73.0766 34.435C73.2566 34.5183 73.3941 34.6433 73.4891 34.81C73.5858 34.9767 73.6425 35.1833 73.6591 35.43H72.8991C72.8958 35.3333 72.875 35.2517 72.8366 35.185C72.8 35.1183 72.7458 35.0675 72.6741 35.0325C72.6025 34.9975 72.5133 34.98 72.4066 34.98C72.245 34.98 72.1216 35.0067 72.0366 35.06C71.9516 35.1117 71.9091 35.1942 71.9091 35.3075C71.9091 35.3925 71.9283 35.465 71.9666 35.525C72.0066 35.5833 72.075 35.6383 72.1716 35.69C72.2683 35.7417 72.4025 35.7992 72.5741 35.8625C72.7341 35.9208 72.8875 35.9783 73.0341 36.035C73.1825 36.09 73.315 36.1558 73.4316 36.2325C73.5483 36.3075 73.64 36.4025 73.7066 36.5175C73.775 36.6325 73.8091 36.7792 73.8091 36.9575C73.8108 37.3208 73.6866 37.5942 73.4366 37.7775C73.1866 37.9592 72.8525 38.05 72.4341 38.05ZM74.9071 38V35.385C74.9071 35.285 74.9254 35.2125 74.9621 35.1675C74.9987 35.1225 75.0546 35.0942 75.1296 35.0825H74.0096V34.365H76.5946V35.0825H75.7021V38H74.9071Z" fill="#1C383C"/>
<rect x="55" width="22" height="8" rx="1" fill="#1C383C"/>
</svg>
